svg/Pictogram/pictograms-aem-0038-multiple_flying_objects-face.svg

<?xml version="1.0" encoding="ISO-8859-1" standalone="yes"?>
<svg height="304.014" width="304.015">
  <metadata>
    <rdf:RDF xmlns:cc="http://web.resource.org/cc/" xmlns:dc="http://purl.org/dc/elements/1.1/" xmlns:rdf="http://www.w3.org/1999/02/22-rdf-syntax-ns#">
      <cc:Work rdf:about="">
        <dc:title></dc:title>
        <dc:description></dc:description>
        <dc:subject>
          <rdf:Bag>
            <rdf:li></rdf:li>
          </rdf:Bag>
        </dc:subject>
        <dc:publisher>
          <cc:Agent rdf:about="http://www.unece.org/trans/danger/publi/ghs/pictograms.html">
            <dc:title>Source: UNECE GHS of Classification and Labeling of Chemicals, Source: AEM Pictorial Database, Source: AEM Pictorial Database, Source: AEM Pictorial Database, Source: AEM Pictorial Database</dc:title>
          </cc:Agent>
        </dc:publisher>
        <dc:creator>
          <cc:Agent>
            <dc:title></dc:title>
          </cc:Agent>
        </dc:creator>
        <dc:rights>
          <cc:Agent>
            <dc:title></dc:title>
          </cc:Agent>
        </dc:rights>
        <dc:date></dc:date>
        <dc:format>image/svg+xml</dc:format>
        <dc:type rdf:resource="http://purl.org/dc/dcmitype/StillImage"/>
        <cc:license rdf:resource="http://en.wikipedia.org/wiki/Public_domain"/>
        <dc:language>en</dc:language>
      </cc:Work>
    </rdf:RDF>
  </metadata>
  <defs><marker id="ArrowEnd" markerHeight="3" markerUnits="strokeWidth" markerWidth="4" orient="auto" refX="0" refY="5" viewBox="0 0 10 10"><path d="M 0 0 L 10 5 L 0 10 z"/></marker><marker id="ArrowStart" markerHeight="3" markerUnits="strokeWidth" markerWidth="4" orient="auto" refX="10" refY="5" viewBox="0 0 10 10"><path d="M 10 0 L 0 5 L 10 10 z"/></marker> </defs>
  <g id="g2958" transform="matrix(1.3532768,0,0,1.3532781,-53.207834,-52.192858)">
    <path d="M 95.5194 159.307L 55.4294 182.452L 55.4214 187.694L 97.7844 163.233L 99.5304 166.256L 108.687 154.323L 93.7764 156.284L 95.5194 159.307" style="stroke:none; fill-rule:evenodd; fill:#000000"/>
    <path d="M 86.9834 185.959L 55.4134 204.19L 55.4174 209.42L 89.2534 189.885L 90.9954 192.909L 100.151 180.971L 85.2414 182.94L 86.9834 185.959" style="stroke:none; fill-rule:evenodd; fill:#000000"/>
    <path d="M 102.53 114.081L 104.276 111.061L 89.3624 109.096L 98.5194 121.03L 100.265 118.006L 114.737 126.362L 55.4214 160.62L 55.4094 165.866L 123.812 126.37L 102.53 114.081" style="stroke:none; fill-rule:evenodd; fill:#000000"/>
    <path d="M 248.604 142.166C 248.335 187.221 218.901 222.971 173.886 226.225L 151.624 226.276C 140.222 226.276 130.976 217.03 130.976 205.627L 130.976 177.788L 115.937 175.502C 113.366 174.663 112.144 174.663 111.73 171.889C 111.632 171.209 112.104 169.682 112.331 169.073L 118.831 151.049L 129.48 121.526L 130.175 119.592C 131.253 116.752 132.562 114.081 134.077 111.577C 145.968 91.9014 166.093 79.4984 185.937 78.1824L 185.948 78.1864L 190.163 77.7374C 195.64 77.5844 200.952 78.2374 205.796 79.4984L 209.714 81.1314C 230.089 89.0184 243.851 109.307 247.604 130.358L 248.604 142.166zM 144.448 152.112C 150.175 152.112 154.815 147.471 154.815 141.748C 154.815 136.022 150.175 131.377 144.448 131.377C 138.722 131.377 134.081 136.022 134.081 141.748C 134.081 147.471 138.722 152.112 144.448 152.112" style="stroke:none; fill-rule:evenodd; fill:#000000"/>
    <path d="M 29.6204 265.393L 2.62042 265.393" style="stroke:#000000; stroke-width:0.5; fill:none"/>
    <path d="M 38.6204 274.393L 38.6204 301.393" style="stroke:#000000; stroke-width:0.5; fill:none"/>
    <path d="M 29.6204 38.6204L 2.62042 38.6204" style="stroke:#000000; stroke-width:0.5; fill:none"/>
    <path d="M 38.6204 29.6204L 38.6204 2.62042" style="stroke:#000000; stroke-width:0.5; fill:none"/>
    <path d="M 274.394 38.6204L 301.394 38.6204" style="stroke:#000000; stroke-width:0.5; fill:none"/>
    <path d="M 265.394 29.6204L 265.394 2.62042" style="stroke:#000000; stroke-width:0.5; fill:none"/>
    <path d="M 274.394 265.393L 301.394 265.393" style="stroke:#000000; stroke-width:0.5; fill:none"/>
    <path d="M 265.394 274.393L 265.394 301.393" style="stroke:#000000; stroke-width:0.5; fill:none"/>
  </g>
</svg>

<svg viewBox="0 0 304.01 304.01"><g transform="matrix(1.35328 0 0 1.35328-53.21-52.19)" fill-rule="evenodd"><path d="m95.52 159.31l-40.09 23.15-.008 5.242 42.36-24.461 1.746 3.02 9.157-11.933-14.911 1.961 1.743 3.02"/><path d="m86.983 185.96l-31.57 18.231.004 5.23 33.836-19.535 1.742 3.02 9.156-11.938-14.91 1.969 1.742 3.02"/><path d="m102.53 114.08l1.746-3.02-14.914-1.965 9.157 11.934 1.746-3.02 14.472 8.356-59.32 34.26-.012 5.246 68.4-39.496-21.282-12.289"/><path d="m248.6 142.17c-.269 45.06-29.703 80.81-74.72 84.06l-22.262.051c-11.402 0-20.648-9.246-20.648-20.649v-27.839l-15.04-2.286c-2.571-.839-3.793-.839-4.207-3.613-.098-.68.374-2.207.601-2.816l6.5-18.02 10.649-29.523.695-1.934c1.078-2.84 2.387-5.511 3.902-8.02 11.891-19.676 32.02-32.08 51.86-33.395l.011.004 4.215-.449c5.477-.153 10.789.5 15.633 1.761l3.918 1.633c20.375 7.887 34.14 28.18 37.89 49.23l1 11.808m-104.16 9.946c5.727 0 10.367-4.641 10.367-10.364 0-5.726-4.64-10.371-10.367-10.371-5.726 0-10.367 4.645-10.367 10.371 0 5.723 4.641 10.364 10.367 10.364"/></g></svg>
